img/icons/icons-reference-information/icon-basic-indicators.svg

<svg width="120" height="120" viewBox="0 0 120 120" fill="none" xmlns="http://www.w3.org/2000/svg">
<path d="M55.5171 57.0146C53.5449 56.855 51.6786 56.7619 49.9844 56.7619V51.8691H55.5304V57.0146H55.5171Z" stroke="black" stroke-width="1.3" stroke-linecap="round" stroke-linejoin="round"/>
<path d="M64.5219 58.2892C62.6953 57.9169 60.8555 57.6244 59.0156 57.3851V44.834H64.5484V58.1297L64.5219 58.2892Z" stroke="black" stroke-width="1.3" stroke-linecap="round" stroke-linejoin="round"/>
<path d="M73.6625 38.0938V60.4704L73.4508 60.9624C71.7308 60.2309 69.9615 59.6222 68.1562 59.1409V38.0938H73.6625Z" stroke="black" stroke-width="1.3" stroke-linecap="round" stroke-linejoin="round"/>
<path d="M86.2031 66.6397V28.2949H91.7491V63.7545L91.8418 63.9673C89.8961 64.7916 87.9636 65.6957 86.2031 66.6397Z" stroke="black" stroke-width="1.3" stroke-linecap="round" stroke-linejoin="round"/>
<path d="M82.6905 33.2812V68.4484L82.8228 68.6611C81.9812 69.1985 81.1683 69.7798 80.3874 70.4028C80.7128 69.5562 80.7953 68.635 80.6256 67.7437C80.3781 66.7116 79.9195 65.7425 79.2792 64.898C78.6389 64.0534 77.8309 63.3518 76.9062 62.8376L77.1577 62.4919V33.2812H82.6905Z" stroke="black" stroke-width="1.3" stroke-linecap="round" stroke-linejoin="round"/>
<path d="M68.0976 38.0932V59.1403C66.9328 58.8212 65.7415 58.5553 64.5238 58.3027V58.1431V44.8474H59.097V57.3986C57.9057 57.239 56.7276 57.1193 55.5893 57.0262V51.8808H50.0433V56.7736C48.1203 56.7308 46.1976 56.8644 44.2988 57.1726C43.5443 57.3321 42.7501 57.5448 41.903 57.7974C40.9044 54.6474 40.4129 51.3574 40.447 48.0516C40.4315 43.1795 41.4921 38.3646 43.5521 33.9537C45.6122 29.5428 48.6205 25.6457 52.3604 22.5432C56.1003 19.4407 60.4787 17.21 65.1801 16.0118C69.8816 14.8136 74.7891 14.6778 79.5491 15.614C84.3091 16.5502 88.8031 18.5353 92.7075 21.4261C96.6119 24.3169 99.8293 28.0416 102.128 32.3318C104.427 36.622 105.75 41.371 106.002 46.2366C106.253 51.1022 105.428 55.9634 103.584 60.4699H103.439C99.4457 61.1681 95.5522 62.3513 91.8435 63.9932L91.7509 63.7805V28.2943H86.2049V66.6391C84.9871 67.2906 83.8488 67.9686 82.8164 68.6334L82.684 68.4207V33.2801H77.1513V62.4243L76.8998 62.77C75.7959 62.0597 74.6308 61.4501 73.4186 60.9485L73.6569 60.4699V38.0932H68.0976Z" stroke="black" stroke-width="1.3" stroke-linecap="round" stroke-linejoin="round"/>
<path d="M24.8041 85.8516C24.1477 85.9256 23.5474 86.2585 23.1353 86.7772C22.7233 87.2958 22.5332 87.9576 22.6069 88.617C22.6806 89.2764 23.0121 89.8794 23.5284 90.2934C24.0447 90.7073 24.7036 90.8982 25.3601 90.8242C25.6851 90.7875 25.9998 90.6869 26.2861 90.528C26.5725 90.3692 26.8249 90.1553 27.0289 89.8985C27.2329 89.6417 27.3846 89.3471 27.4753 89.0314C27.5659 88.7157 27.5938 88.3851 27.5573 88.0586C27.5208 87.7321 27.4206 87.416 27.2625 87.1284C27.1044 86.8408 26.8914 86.5873 26.6358 86.3823C26.3801 86.1774 26.0868 86.025 25.7725 85.9339C25.4582 85.8429 25.1292 85.8149 24.8041 85.8516V85.8516ZM12.0841 104L9 71.2395L23.3614 66.7988L36.1477 87.5401L36.8227 92.8584L12.0841 104Z" stroke="black" stroke-width="1.3" stroke-linecap="round" stroke-linejoin="round"/>
<path d="M73.5857 89.0816C58.1919 90.2383 55.0549 80.1069 36.1005 87.5392L23.3672 66.798C28.0396 64.1388 35.9417 59.6715 41.898 57.7835C42.7451 57.5308 43.5393 57.3182 44.2938 57.1586C46.1926 56.8504 48.1154 56.7169 50.0384 56.7598C51.7326 56.7598 53.5989 56.8528 55.5711 57.0124C56.7094 57.1054 57.8874 57.2251 59.0787 57.3846C60.9185 57.6239 62.7584 57.9164 64.585 58.2887C65.8028 58.5413 66.9941 58.8072 68.1589 59.1263C69.9642 59.6077 71.7334 60.2164 73.4534 60.9478C74.6656 61.4494 75.8305 62.059 76.9345 62.7694V62.7694C77.8591 63.2835 78.6672 63.9852 79.3075 64.8298C79.9478 65.6743 80.4064 66.6434 80.6539 67.6755C80.8236 68.5668 80.741 69.488 80.4156 70.3346C81.1966 69.7116 82.0095 69.1303 82.8511 68.5929C83.8836 67.9148 85.0219 67.2633 86.2396 66.5985C88 65.6545 89.9326 64.7504 91.8783 63.9394C95.5808 62.3177 99.4653 61.1525 103.447 60.4692H103.592C106.862 60.0305 111.68 60.3363 111.997 64.551C112.5 71.3185 82.5599 88.3902 73.5857 89.0816Z" stroke="black" stroke-width="1.3" stroke-linecap="round" stroke-linejoin="round"/>
<path d="M23.3672 66.798C28.0396 64.1388 35.9417 59.6715 41.898 57.7835C42.7451 57.5308 43.5393 57.3182 44.2938 57.1586C46.1926 56.8504 48.1154 56.7169 50.0384 56.7598C51.7326 56.7598 53.5989 56.8528 55.5711 57.0124C56.7094 57.1054 57.8874 57.2251 59.0787 57.3846C60.9185 57.6239 62.7584 57.9164 64.585 58.2887C65.8028 58.5413 66.9941 58.8072 68.1589 59.1263C69.9641 59.6077 71.7334 60.2164 73.4534 60.9478C74.6656 61.4494 75.8305 62.059 76.9344 62.7694V62.7694C77.8591 63.2835 78.6672 63.9852 79.3075 64.8298C79.9478 65.6743 80.4063 66.6434 80.6539 67.6755C80.8236 68.5668 80.741 69.488 80.4156 70.3346C77.8875 76.3443 60.6803 71.2387 57.1727 70.3346" stroke="black" stroke-width="1.3" stroke-linecap="round" stroke-linejoin="round"/>
<path d="M36.0938 87.5399C55.0614 80.1076 58.1851 90.1991 73.579 89.0822C82.5532 88.4175 112.494 71.3191 111.964 64.5117C111.647 60.297 106.829 59.9912 103.559 60.43H103.414C99.4207 61.1282 95.5272 62.3114 91.8185 63.9533C89.8728 64.7777 87.9404 65.6818 86.1799 66.6125C84.9622 67.264 83.8239 67.9421 82.7915 68.6068C81.9499 69.1442 81.1369 69.7256 80.3559 70.3486" stroke="black" stroke-width="1.3" stroke-linecap="round" stroke-linejoin="round"/>
<path d="M36.0947 87.5401L36.7698 92.8584L12.0841 104L9 71.2395L23.3084 66.7988L36.0947 87.5401Z" stroke="black" stroke-width="1.3" stroke-linecap="round" stroke-linejoin="round"/>
<path d="M24.8004 85.8513C25.2894 85.7966 25.7835 85.8887 26.2203 86.116C26.6572 86.3433 27.0171 86.6955 27.2548 87.1282C27.4924 87.5609 27.597 88.0547 27.5553 88.5471C27.5137 89.0395 27.3276 89.5085 27.0208 89.8947C26.7139 90.2809 26.2999 90.5672 25.8312 90.7172C25.3624 90.8672 24.8599 90.8742 24.3871 90.7374C23.9144 90.6007 23.4926 90.3263 23.1751 89.9488C22.8576 89.5714 22.6585 89.1078 22.6032 88.6167C22.5646 88.2899 22.5909 87.9587 22.6808 87.6421C22.7706 87.3256 22.9221 87.0301 23.1265 86.7728C23.3309 86.5156 23.5841 86.3016 23.8715 86.1434C24.1588 85.9852 24.4746 85.886 24.8004 85.8513V85.8513Z" stroke="black" stroke-width="1.3" stroke-linecap="round" stroke-linejoin="round"/>
<path d="M86.2031 66.6397V28.2949H91.7491V63.7545" stroke="black" stroke-width="1.3" stroke-linecap="round" stroke-linejoin="round"/>
<path d="M77.1562 62.4254V33.2812H82.689V68.4218" stroke="black" stroke-width="1.3" stroke-linecap="round" stroke-linejoin="round"/>
<path d="M68.1016 59.1675V59.1275V38.0938H73.6343V60.4571" stroke="black" stroke-width="1.3" stroke-linecap="round" stroke-linejoin="round"/>
<path d="M59.0391 57.3054V44.834H64.5718V58.1297" stroke="black" stroke-width="1.3" stroke-linecap="round" stroke-linejoin="round"/>
<path d="M49.9844 56.855V56.7619V51.8691H55.5304V56.9348" stroke="black" stroke-width="1.3" stroke-linecap="round" stroke-linejoin="round"/>
<path d="M41.8951 57.8783C41.8894 57.8475 41.8894 57.8159 41.8951 57.7852C40.8965 54.6351 40.405 51.3452 40.4392 48.0395C40.4304 43.1707 41.496 38.3605 43.5594 33.9549C45.6227 29.5492 48.6324 25.6577 52.3721 22.5603C56.1118 19.4628 60.4884 17.2365 65.1872 16.0413C69.8859 14.8461 74.7899 14.7119 79.5465 15.6482C84.3031 16.5846 88.794 18.5683 92.696 21.4566C96.5981 24.3448 99.8144 28.0659 102.113 32.3521C104.413 36.6384 105.737 41.3831 105.993 46.2452C106.248 51.1072 105.427 55.9656 103.589 60.4709V60.4709" stroke="black" stroke-width="1.3" stroke-linecap="round" stroke-linejoin="round"/>
</svg>

<svg width="120" height="120" fill="none" xmlns="http://www.w3.org/2000/svg"><path d="M55.517 57.015c-1.972-.16-3.838-.253-5.533-.253v-4.893h5.546v5.146h-.013zm9.005 1.275a77.83 77.83 0 00-5.506-.905V44.834h5.532V58.13l-.026.16zm9.14-20.196V60.47l-.211.492a39.583 39.583 0 00-5.295-1.821V38.094h5.506zM86.203 66.64V28.295h5.546v35.46l.093.212a69.249 69.249 0 00-5.639 2.673zM82.69 33.281v35.167l.133.213a28.496 28.496 0 00-2.436 1.742 4.872 4.872 0 00.239-2.66 7.67 7.67 0 00-1.347-2.845 7.634 7.634 0 00-2.373-2.06l.252-.346v-29.21h5.532z" stroke="#000" stroke-width="1.3" stroke-linecap="round" stroke-linejoin="round"/><path d="M68.098 38.093V59.14a58.478 58.478 0 00-3.574-.837V44.847h-5.427V57.4c-1.191-.16-2.37-.28-3.508-.373v-5.145h-5.546v4.893a31.48 31.48 0 00-5.744.399 31.01 31.01 0 00-2.396.624 31.187 31.187 0 01-1.456-9.745 33.07 33.07 0 013.105-14.098 32.929 32.929 0 018.808-11.41 32.746 32.746 0 0112.82-6.532 32.657 32.657 0 0114.37-.398 32.727 32.727 0 0113.157 5.812 32.902 32.902 0 019.421 10.906 33.086 33.086 0 011.456 28.138h-.145a49.853 49.853 0 00-11.595 3.523l-.093-.212V28.294h-5.546V66.64a48.822 48.822 0 00-3.389 1.994l-.132-.212V33.28h-5.533v29.143l-.251.346a21.928 21.928 0 00-3.481-1.822l.238-.478V38.093h-5.56zM24.804 85.852a2.488 2.488 0 00-1.669.925 2.51 2.51 0 00.393 3.516 2.483 2.483 0 003.5-.395 2.507 2.507 0 00-1.255-3.964 2.48 2.48 0 00-.969-.082v0zM12.084 104L9 71.24l14.361-4.441L36.148 87.54l.675 5.318L12.084 104z" stroke="#000" stroke-width="1.3" stroke-linecap="round" stroke-linejoin="round"/><path d="M73.586 89.082c-15.394 1.156-18.531-8.975-37.486-1.543L23.367 66.798c4.673-2.66 12.575-7.127 18.531-9.015a30.606 30.606 0 012.396-.624 31.473 31.473 0 015.744-.4c1.695 0 3.56.094 5.533.253a68.51 68.51 0 013.508.373c1.84.239 3.68.531 5.506.904 1.218.252 2.41.518 3.574.837a39.61 39.61 0 015.294 1.822 21.924 21.924 0 013.481 1.821v0a7.633 7.633 0 012.374 2.06 7.67 7.67 0 011.346 2.847c.17.89.087 1.812-.238 2.659a28.514 28.514 0 012.435-1.742c1.033-.678 2.17-1.33 3.389-1.995a65.02 65.02 0 015.638-2.659 49.85 49.85 0 0111.569-3.47h.145c3.27-.438 8.088-.133 8.405 4.082.503 6.767-29.437 23.84-38.411 24.53z" stroke="#000" stroke-width="1.3" stroke-linecap="round" stroke-linejoin="round"/><path d="M23.367 66.798c4.673-2.66 12.575-7.127 18.531-9.015a30.606 30.606 0 012.396-.624 31.473 31.473 0 015.744-.4c1.695 0 3.56.094 5.533.253a68.51 68.51 0 013.508.373c1.84.239 3.68.531 5.506.904 1.218.252 2.41.518 3.574.837a39.615 39.615 0 015.294 1.822 21.919 21.919 0 013.481 1.821v0a7.633 7.633 0 012.374 2.06 7.672 7.672 0 011.346 2.847c.17.89.087 1.812-.238 2.659-2.528 6.01-19.736.904-23.243 0" stroke="#000" stroke-width="1.3" stroke-linecap="round" stroke-linejoin="round"/><path d="M36.094 87.54c18.967-7.432 22.091 2.66 37.485 1.542 8.974-.664 38.915-17.763 38.385-24.57-.317-4.215-5.135-4.52-8.405-4.082h-.145a49.853 49.853 0 00-11.596 3.523 73.986 73.986 0 00-5.638 2.66 48.882 48.882 0 00-3.389 1.994 28.516 28.516 0 00-2.435 1.742" stroke="#000" stroke-width="1.3" stroke-linecap="round" stroke-linejoin="round"/><path d="M36.095 87.54l.675 5.318L12.084 104 9 71.24l14.308-4.441L36.095 87.54z" stroke="#000" stroke-width="1.3" stroke-linecap="round" stroke-linejoin="round"/><path d="M24.8 85.851a2.479 2.479 0 012.455 1.277 2.509 2.509 0 01-.234 2.767 2.489 2.489 0 01-2.634.842 2.487 2.487 0 01-1.212-.788 2.505 2.505 0 01-.572-1.332 2.496 2.496 0 011.268-2.474c.288-.158.604-.257.93-.292v0zM86.203 66.64V28.295h5.546v35.46m-14.593-1.33V33.281h5.533v35.14m-14.587-9.254V38.094h5.532v22.363M59.04 57.305V44.834h5.532V58.13m-14.588-1.275v-4.986h5.546v5.066" stroke="#000" stroke-width="1.3" stroke-linecap="round" stroke-linejoin="round"/><path d="M41.895 57.878a.256.256 0 010-.093 31.184 31.184 0 01-1.456-9.745 33.069 33.069 0 013.12-14.085 32.925 32.925 0 018.813-11.395 32.745 32.745 0 0112.815-6.519 32.657 32.657 0 0114.36-.393 32.727 32.727 0 0113.149 5.809 32.895 32.895 0 019.417 10.895 33.06 33.06 0 011.476 28.119v0" stroke="#000" stroke-width="1.3" stroke-linecap="round" stroke-linejoin="round"/></svg>
